svg/other/toilet_paper_line.svg

<?xml version="1.0" encoding="UTF-8"?>
<svg width="24px" height="24px" viewBox="0 0 24 24" version="1.1" xmlns="http://www.w3.org/2000/svg" xmlns:xlink="http://www.w3.org/1999/xlink">
    <title>toilet_paper_line</title>
    <g id="Icon" stroke="none" stroke-width="1" fill="none" fill-rule="evenodd">
        <g id="Business" transform="translate(-49.000000, -480.000000)" fill-rule="nonzero">
            <g id="toilet_paper_line" transform="translate(49.000000, 480.000000)">
                <path d="M24,0 L24,24 L0,24 L0,0 L24,0 Z M12.5935,23.2578 L12.5819,23.2595 L12.5109,23.295 L12.4919,23.2987 L12.4767,23.295 L12.4057,23.2595 C12.3958,23.2564 12.387,23.259 12.3821,23.2649 L12.378,23.2758 L12.3609,23.7031 L12.3659,23.7235 L12.3769,23.7357 L12.4805,23.8097 L12.4953,23.8136 L12.5071,23.8097 L12.6107,23.7357 L12.6233,23.7197 L12.6267,23.7031 L12.6096,23.2758 C12.6076,23.2657 12.601,23.2593 12.5935,23.2578 Z M12.8584,23.1453 L12.8445,23.1473 L12.6598,23.2397 L12.6499,23.2499 L12.6472,23.2611 L12.6651,23.6906 L12.6699,23.7034 L12.6784,23.7105 L12.8793,23.8032 C12.8914,23.8069 12.9022,23.803 12.9078,23.7952 L12.9118,23.7812 L12.8777,23.1665 C12.8753,23.1546 12.8674,23.147 12.8584,23.1453 Z M12.143,23.1473 C12.1332,23.1424 12.1222,23.1453 12.1156,23.1526 L12.1099,23.1665 L12.0758,23.7812 C12.0751,23.7927 12.0828,23.8019 12.0926,23.8046 L12.1083,23.8032 L12.3092,23.7105 L12.3186,23.7024 L12.3225,23.6906 L12.3404,23.2611 L12.3372,23.2485 L12.3278,23.2397 L12.143,23.1473 Z" id="MingCute"></path>
                <path d="M18,3 C19.4536,3 20.4523,4.23457 21.0293,5.48475 C21.6014857,6.72450429 21.9480219,8.34282719 21.9946078,10.0937092 L22,10.5 L22,20 C22,20.294 21.8707,20.573 21.6464,20.763 C21.4541429,20.9258571 21.2088408,21.0091469 20.9600542,20.9992041 L20.8356,20.9864 L18,20.5138 L15.1644,20.9864 C15.043725,21.0065 14.9207438,21.0042688 14.8015313,20.9801281 L14.6838,20.9487 L12,20.0541 L9.31623,20.9487 C9.01128,21.0503 8.67606,20.9992 8.41529,20.8112 C8.18711625,20.6467875 8.04029016,20.3950938 8.00714885,20.1194264 L8,20 L8,17.0733 C7.46874,17.6224 6.80395,18 6,18 C4.5464,18 3.54772,16.7654 2.97072,15.5153 C2.35451,14.1801 2,12.406 2,10.5 C2,8.59404 2.35451,6.81987 2.97072,5.48475 C3.52149273,4.29139636 4.45648215,3.11226589 5.80459845,3.00753782 L6,3 L18,3 Z M18,5 L8.78243,5 C8.87191,5.15953 8.95417,5.322 9.02928,5.48475 C9.64549,6.81987 10,8.59404 10,10.5 L10,18.6126 L11.6838,18.0513 C11.889,17.9829 12.111,17.9829 12.3162,18.0513 L15.0806,18.9728 L17.8356,18.5136 C17.9444,18.4955 18.0555,18.4955 18.1644,18.5136 L20,18.8195 L20,10.5 C20,8.81611 19.6829,7.34028 19.2134,6.32286 C18.7046,5.2205 18.2033,5 18,5 Z M6,5 C5.79674,5 5.29542,5.2205 4.78664,6.32286 C4.31706,7.34028 4,8.81611 4,10.5 C4,12.1839 4.31706,13.6597 4.78664,14.6771 C5.29542,15.7795 5.79674,16 6,16 C6.20326,16 6.70458,15.7795 7.21336,14.6771 C7.68294,13.6597 8,12.1839 8,10.5 C8,8.81611 7.68294,7.34028 7.21336,6.32286 C6.70458,5.2205 6.20326,5 6,5 Z M6,8.5 C6.55228,8.5 7,9.39543 7,10.5 C7,11.6046 6.55228,12.5 6,12.5 C5.44772,12.5 5,11.6046 5,10.5 C5,9.39543 5.44772,8.5 6,8.5 Z" id="形状" fill="#09244B"></path>
            </g>
        </g>
    </g>
</svg>

<svg xmlns="http://www.w3.org/2000/svg" width="24" height="24"><g fill="none" fill-rule="nonzero"><path d="M24 0v24H0V0h24ZM12.594 23.258l-.012.002-.071.035-.02.004-.014-.004-.071-.036c-.01-.003-.019 0-.024.006l-.004.01-.017.428.005.02.01.013.104.074.015.004.012-.004.104-.074.012-.016.004-.017-.017-.427c-.002-.01-.009-.017-.016-.018Zm.264-.113-.014.002-.184.093-.01.01-.003.011.018.43.005.012.008.008.201.092c.012.004.023 0 .029-.008l.004-.014-.034-.614c-.003-.012-.01-.02-.02-.022Zm-.715.002a.023.023 0 0 0-.027.006l-.006.014-.034.614c0 .012.007.02.017.024l.015-.002.201-.093.01-.008.003-.011.018-.43-.003-.012-.01-.01-.184-.092Z"/><path fill="#09244B" d="M18 3c1.454 0 2.452 1.235 3.03 2.485.571 1.24.918 2.858.965 4.609L22 10.5V20a1 1 0 0 1-1.04 1l-.124-.014L18 20.514l-2.836.472a1 1 0 0 1-.362-.006l-.118-.031L12 20.054l-2.684.895a1 1 0 0 1-1.309-.83L8 20v-2.927c-.531.55-1.196.927-2 .927-1.454 0-2.452-1.235-3.03-2.485C2.356 14.18 2 12.406 2 10.5c0-1.906.355-3.68.97-5.015.551-1.194 1.486-2.373 2.835-2.477L6 3h12Zm0 2H8.782c.09.16.172.322.247.485C9.645 6.82 10 8.594 10 10.5v8.113l1.684-.562a1 1 0 0 1 .632 0l2.765.922 2.755-.46c.108-.018.22-.018.328 0L20 18.82V10.5c0-1.684-.317-3.16-.787-4.177C18.705 5.22 18.203 5 18 5ZM6 5c-.203 0-.705.22-1.213 1.323C4.317 7.34 4 8.816 4 10.5c0 1.684.317 3.16.787 4.177C5.295 15.78 5.797 16 6 16c.203 0 .705-.22 1.213-1.323C7.683 13.66 8 12.184 8 10.5c0-1.684-.317-3.16-.787-4.177C6.705 5.22 6.203 5 6 5Zm0 3.5c.552 0 1 .895 1 2s-.448 2-1 2-1-.895-1-2 .448-2 1-2Z"/></g></svg>
